X:132
T:Dance. VWMLa.132
%%VWML:Anon2-3049-p75-0
F:http://www.vwml.org/record/Anon2/3049/p75
S:Anon. MS, late 18thC, Vaughan Williams Mem. Library
O:England;Yorkshire
Z:vmp/efdss.Simon Wilson. Reviewed PJH 2008.
M:2/4
L:1/8
Q:1/4=120
K:F
a2ga|fg/f/ ec|dfeg|f/e/f/g/ ff|\
a2ga|fg/f/ ec|dfeg|f2f2:|
|:(A,C)(A,C)|(B,2B,)B|AGFE|F/E/F/G/ FF|\
(A,C)(A,C)|(B,2B,)B|AGFE|F2F2:|
|:[F2c2f2]fa|[c2g2]gb|agfe|f/e/f/g/ ff|\
[F2c2f2]fa|[c2g2]gb|agfe|f2f2:|
